recipes/googleclassroom/icon.svg

<?xml version="1.0" encoding="UTF-8"?>
<svg xmlns="http://www.w3.org/2000/svg" xmlns:xlink="http://www.w3.org/1999/xlink" width="1024pt" height="1024pt" viewBox="0 0 1024 1024" version="1.1">
<g id="surface1">
<path style=" stroke:none;fill-rule:nonzero;fill:rgb(100%,75.686275%,2.745098%);fill-opacity:1;" d="M 874.667969 896 L 149.332031 896 C 102.273438 896 64 857.726562 64 810.667969 L 64 213.332031 C 64 166.273438 102.273438 128 149.332031 128 L 874.667969 128 C 921.726562 128 960 166.273438 960 213.332031 L 960 810.667969 C 960 857.726562 921.726562 896 874.667969 896 Z M 874.667969 896 "/>
<path style=" stroke:none;fill-rule:nonzero;fill:rgb(21.960784%,55.686275%,23.529412%);fill-opacity:1;" d="M 149.332031 213.332031 L 874.667969 213.332031 L 874.667969 810.667969 L 149.332031 810.667969 Z M 149.332031 213.332031 "/>
<path style=" stroke:none;fill-rule:nonzero;fill:rgb(100%,100%,100%);fill-opacity:1;" d="M 597.332031 768 L 768 768 L 768 810.667969 L 597.332031 810.667969 Z M 512 362.667969 C 476.652344 362.667969 448 391.320312 448 426.667969 C 448 462.011719 476.652344 490.667969 512 490.667969 C 547.347656 490.667969 576 462.011719 576 426.667969 C 576 391.320312 547.347656 362.667969 512 362.667969 Z M 512 362.667969 "/>
<path style=" stroke:none;fill-rule:nonzero;fill:rgb(64.705882%,83.921569%,65.490196%);fill-opacity:1;" d="M 341.332031 448 C 317.769531 448 298.667969 467.101562 298.667969 490.667969 C 298.667969 514.230469 317.769531 533.332031 341.332031 533.332031 C 364.898438 533.332031 384 514.230469 384 490.667969 C 384 467.101562 364.898438 448 341.332031 448 Z M 341.332031 448 "/>
<path style=" stroke:none;fill-rule:nonzero;fill:rgb(18.039216%,49.019608%,19.607843%);fill-opacity:1;" d="M 149.332031 213.332031 L 874.667969 213.332031 L 874.667969 256 L 149.332031 256 Z M 149.332031 213.332031 "/>
<path style=" stroke:none;fill-rule:nonzero;fill:rgb(100%,67.058824%,0%);fill-opacity:1;" d="M 768 810.667969 L 597.332031 810.667969 L 682.667969 896 L 853.332031 896 Z M 768 810.667969 "/>
<path style=" stroke:none;fill-rule:nonzero;fill:rgb(64.705882%,83.921569%,65.490196%);fill-opacity:1;" d="M 682.667969 448 C 659.101562 448 640 467.101562 640 490.667969 C 640 514.230469 659.101562 533.332031 682.667969 533.332031 C 706.230469 533.332031 725.332031 514.230469 725.332031 490.667969 C 725.332031 467.101562 706.230469 448 682.667969 448 Z M 789.332031 612.011719 C 789.332031 602.515625 785.855469 593.367188 779.347656 586.433594 C 764.566406 570.667969 733.078125 554.667969 682.667969 554.667969 C 632.257812 554.667969 600.769531 570.667969 585.984375 586.433594 C 579.476562 593.367188 576 602.496094 576 612.011719 L 576 640 L 789.332031 640 Z M 448 612.011719 C 448 602.515625 444.523438 593.367188 438.015625 586.433594 C 423.230469 570.667969 391.742188 554.667969 341.332031 554.667969 C 290.921875 554.667969 259.433594 570.667969 244.652344 586.433594 C 238.144531 593.367188 234.667969 602.496094 234.667969 612.011719 L 234.667969 640 L 448 640 Z M 448 612.011719 "/>
<path style=" stroke:none;fill-rule:nonzero;fill:rgb(100%,100%,100%);fill-opacity:1;" d="M 640 591.828125 C 640 580.4375 635.820312 569.472656 628.011719 561.152344 C 610.28125 542.230469 572.480469 512 512 512 C 451.519531 512 413.71875 542.230469 395.988281 561.128906 C 388.179688 569.449219 384 580.414062 384 591.828125 L 384 640 L 640 640 Z M 640 591.828125 "/>
</g>
</svg>

<svg xmlns="http://www.w3.org/2000/svg" width="1024pt" height="1024pt" viewBox="0 0 1024 1024"><path style="stroke:none;fill-rule:nonzero;fill:#ffc107;fill-opacity:1" d="M874.668 896H149.332C102.273 896 64 857.727 64 810.668V213.332C64 166.273 102.273 128 149.332 128h725.336C921.727 128 960 166.273 960 213.332v597.336C960 857.727 921.727 896 874.668 896zm0 0"/><path style="stroke:none;fill-rule:nonzero;fill:#388e3c;fill-opacity:1" d="M149.332 213.332h725.336v597.336H149.332zm0 0"/><path style="stroke:none;fill-rule:nonzero;fill:#fff;fill-opacity:1" d="M597.332 768H768v42.668H597.332zM512 362.668c-35.348 0-64 28.652-64 64 0 35.344 28.652 64 64 64s64-28.656 64-64c0-35.348-28.652-64-64-64zm0 0"/><path style="stroke:none;fill-rule:nonzero;fill:#a5d6a7;fill-opacity:1" d="M341.332 448c-23.562 0-42.664 19.102-42.664 42.668 0 23.562 19.102 42.664 42.664 42.664 23.566 0 42.668-19.102 42.668-42.664C384 467.102 364.898 448 341.332 448zm0 0"/><path style="stroke:none;fill-rule:nonzero;fill:#2e7d32;fill-opacity:1" d="M149.332 213.332h725.336V256H149.332zm0 0"/><path style="stroke:none;fill-rule:nonzero;fill:#ffab00;fill-opacity:1" d="M768 810.668H597.332L682.668 896h170.664zm0 0"/><path style="stroke:none;fill-rule:nonzero;fill:#a5d6a7;fill-opacity:1" d="M682.668 448C659.102 448 640 467.102 640 490.668c0 23.562 19.102 42.664 42.668 42.664 23.562 0 42.664-19.102 42.664-42.664 0-23.566-19.102-42.668-42.664-42.668zm106.664 164.012c0-9.496-3.477-18.645-9.984-25.578-14.782-15.766-46.27-31.766-96.68-31.766-50.41 0-81.898 16-96.684 31.766-6.507 6.933-9.984 16.062-9.984 25.578V640h213.332zm-341.332 0c0-9.496-3.477-18.645-9.984-25.578-14.786-15.766-46.274-31.766-96.684-31.766s-81.898 16-96.68 31.766c-6.507 6.933-9.984 16.062-9.984 25.578V640H448zm0 0"/><path style="stroke:none;fill-rule:nonzero;fill:#fff;fill-opacity:1" d="M640 591.828c0-11.39-4.18-22.355-11.988-30.676C610.282 542.23 572.48 512 512 512c-60.48 0-98.281 30.23-116.012 49.129-7.808 8.32-11.988 19.285-11.988 30.7V640h256zm0 0"/></svg>
